X:1
T:h
T:Impossible Franz Liszt S. 140 Etude 6 
T:Franz Liszt
T:Variation 1
%%score { 1 | ( 2 3 ) }
L:1/8
M:2/4
K:C
V:1 treble nm="Piano" snm="Pno."
V:2 bass 
V:3 bass 
V:1
|:"^Var. 1"{[aa'][c'c'']} (3!wedge![ac'e'a'c''e'']!wedge![eac'e'a'c'']!wedge![ceac'e'a'] (3!wedge![Aceac'e']!wedge![EAceac']!wedge![CEAcea] | %1
{[ee'][^g^g']} (3!wedge![egbe'g'b']!wedge![Begbe'g']!wedge![^GBegbe'] (3!wedge![EGBegb]!wedge![B,EGBeg]!wedge![^G,B,EGBe] | %2
{[aa'][c'c'']} (3!wedge![ac'e'a'c''e'']!wedge![eac'e'a'c'']!wedge![ceac'e'a'] (3!wedge![Aceac'e']!wedge![EAceac']!wedge![CEAcea] |1 %3
 (3z !wedge![^GBe^gbe']!wedge![Begbe'^g'] !wedge![gbe'g'b'e''] z :|2 %4
 (3z!<(! [^GBe^gbe'][Begbe'^g'] [gbe'g'b'e'']!<)! z || %5
!8va(!{[^c'^c''][e'e'']} (3[c'e'a'c''e''a''][ac'e'a'c''e''][eac'e'a'c'']!8va)! (3[^ceac'e'a'][cec'e'][Ecec'] | %6
 (3z [FAdfad'][Adfad'f'] (3[dfad'f'a'][fad'f'a'd''][ad'f'a'd''f''] | %7
 (3!arpeggio![bd'g'b'd''g''][gbd'g'b'd''][dgbd'g'b'] (3[Bdgbd'g'][Bdbd'][DBdb] | %8
 (3z [EGcegc'][Gcegc'e'] (3[cegc'e'g'][egc'e'g'c''][gc'e'g'c''e''] | %9
 (3!>![^gbf'^g'b'f''][fgd'f'g'd''][dfbd'f'b'] (3[Bdgbd'g'][^GBfgbf'][FGdfgd'] | %10
 (3!>![ac'e'a'c''e''][eac'e'a'c''][ceac'e'a'] (3[Aceac'e'][EAceac'][CEAcea] | %11
 (3[DFBdfbd'f'b'][FAdfad'f'a'd''][ABfabf'a'b'f''] (3[^GBe^gbe'^g'b'e''][Bdgbd'g'b'd''^g''][debd'e'b'd''e''b''] | %12
 (3[ceac'e'a'][eac'e'a'c''][ac'e'a'c''e''] [c'e'a'c''e''a''] z | z4 |] %14
V:2
|: !wedge![A,,,,A,,,A,,A,]z/[A,,,,A,,,A,,A,]/ ([A,,,,A,,,A,,A,]/[C,,,C,,C,C]/[B,,,,B,,,B,,B,]/[A,,,,A,,,A,,A,]/) | %1
 !wedge![E,,E,E]z/[E,,,E,,E,]/ ([E,,,E,,E,]/[G,,,G,,=G,]/[F,,,F,,F,]/[E,,,E,,E,]/) | %2
 !wedge![A,,,,A,,,A,,A,]z/[A,,,,A,,,A,,A,]/ ([A,,,,A,,,A,,A,]/[C,,,C,,C,C]/[B,,,,B,,,B,,B,]/[A,,,,A,,,A,,A,]/) |1 %3
 (3:2:2(!^![E,,E,E]2 [E,,,E,,E,])[K:treble] (3!wedge![E,Ee]!wedge![E,,E,E][K:bass]!wedge![E,,,E,,E,] :|2 %4
 (3:2:2(!^![E,E]2 [E,,E,]) (3!wedge![E,,,E,,]!wedge![E,,E,]!wedge![E,E] || %5
 !wedge![A,,,,A,,,A,,A,A] z/ [A,,,A,,A,A]/ ([A,,,A,,A,A]/[_B,,,_B,,_B,_B]/[A,,,A,,A,A]/[G,,,G,,G,G]/) | %6
[K:bass] !wedge![F,,,F,,F,F] z/ [D,,,D,,D,D]/ ([D,,,D,,D,D]/[F,,,F,,F,F]/[E,,,E,,E,E]/[D,,,D,,D,D]/) | %7
 !wedge![G,,,G,,G,G] z/ [G,,,G,,G,G]/ ([G,,,G,,G,G]/[A,,,A,,A,A]/[G,,,G,,G,G]/[F,,,F,,F,F]/) | %8
 [E,,,E,,E,E] z/ [C,,,C,,C,C]/ ([C,,,C,,C,C]/[E,,,E,,E,E]/[D,,,D,,D,D]/[C,,,C,,C,C]/) | %9
 [F,,,F,,F,F] z/ [B,,,,B,,,B,,B,]/ ([B,,,,B,,,B,,B,]/[D,,,D,,D,D]/[C,,,C,,C,C]/[B,,,,B,,,B,,B,]/) | %10
 [E,,,E,,E,E] z/ [A,,,,A,,,A,,A,]/ ([A,,,,A,,,A,,A,]/[C,,,C,,C,C]/[B,,,,B,,,B,,B,]/[A,,,,A,,,A,,A,]/) | %11
 !wedge![F,,,F,,F,]!wedge![D,,D,D] [E,,E,]/[E,E]/[D,D]/[B,,B,]/ | %12
 (!arpeggio!!^![A,,,,E,,,A,,,A,,E,A,]2!ped! !wedge![C,,,E,,,A,,,C,,E,,A,,C,E,A,CEA]) z | %13
 z4!ped-up! |] %14
V:3
|: x4 | x4 | x4 |1 x2[K:treble] x4/3[K:bass] x2/3 :|2 x4 || %5
 z !arpeggio!!wedge![A,,,,^C,,,E,,,A,,,^C,,E,,A,,^C,E,A,^CE] z2 | %6
[K:bass] z !arpeggio!!wedge![D,,,A,,,D,,A,,D,A,] z2 | %7
 z !arpeggio!!wedge![B,,,,D,,,F,,,B,,,D,,F,,B,,D,F,B,DF] z2 | %8
 z !arpeggio!!wedge![C,,,G,,,C,,G,,C,G,] z2 | z !arpeggio!!wedge![D,,,G,,,B,,,D,,G,,B,,D,G,B,] z2 | %10
 z !arpeggio!!wedge![C,,,E,,,A,,,C,,E,,A,,C,E,A,] z2 | %11
 [D,,,D,,D,] z [E,,,E,,][E,,,^G,,,E,,^G,,E,^G,] | x4 | x4 |] %14

